fs/f_stop_20_filled.svg

<svg viewBox="0 0 20 20" fill="none" xmlns="http://www.w3.org/2000/svg" height="1em" width="1em">
  <path d="M11.0805 5.68122C11.3594 4.052 13.0753 3.10014 14.6051 3.7261L14.9661 3.87379C15.3494 4.03065 15.7874 3.84703 15.9442 3.46367C16.1011 3.08031 15.9175 2.64237 15.5341 2.4855L15.1732 2.33782C12.7551 1.34841 10.0428 2.85296 9.60201 5.42818L8.99076 8.99964H5.74998C5.33577 8.99964 4.99998 9.33543 4.99998 9.74964C4.99998 10.1639 5.33577 10.4996 5.74998 10.4996H8.73404L8.22706 13.4618C7.91668 15.2753 5.86388 16.1923 4.30612 15.2133L4.14919 15.1146C3.79848 14.8942 3.3355 14.9999 3.11509 15.3506C2.89469 15.7013 3.00031 16.1642 3.35101 16.3846L3.50795 16.4833C5.97022 18.0308 9.21497 16.5814 9.70556 13.7149L10.2558 10.4996H13.25C13.6642 10.4996 14 10.1639 14 9.74964C14 9.33543 13.6642 8.99964 13.25 8.99964H10.5126L11.0805 5.68122Z" fill="#212121"/>
</svg>

<svg viewBox="0 0 20 20" fill="none" xmlns="http://www.w3.org/2000/svg" height="1em" width="1em">
  <path d="M11.08 5.681a2.583 2.583 0 0 1 3.525-1.955l.361.148a.75.75 0 1 0 .568-1.389l-.36-.147a4.083 4.083 0 0 0-5.572 3.09L8.991 9H5.75a.75.75 0 0 0 0 1.5h2.984l-.507 2.962c-.31 1.813-2.363 2.73-3.92 1.751l-.158-.098a.75.75 0 0 0-.798 1.27l.157.098c2.462 1.548 5.707.098 6.198-2.768l.55-3.215h2.994a.75.75 0 1 0 0-1.5h-2.737l.568-3.319Z" fill="#212121"/>
</svg>
